X: 855
M: 3/2
L: 1/8
K: D
|: c2 f2d2 |\
a2 f4 b2 a2g2 | f2 d4 a2 bagf | e2d2 c2a2 B2^g2 | a2 A4 :|\
|: A2 d2A2 |\
e2d2 c2a2 B2^g2 | a2 A4 A2 d2A2 |\
